X:21
T:Midnight on the water
S:Jim Coon to CoMandoList TOW
R:waltz
P:2
M:3/4
L:1/8
Q:1/4=160
K:D
EF | "D"F2 "D"F2 "D"F2 | "D"F2 "D"F2 "D"F2 | "D"A4-"D"A B | "D"AF "D"ED "D"DE | !
"D"F2 "D"d2 "Bm"Bd | "D"A3 F "D"DE | "D"F2 "D"AF "D"ED | "D"D4 "D"EF||!
 "D"F2 "D"F2 "D"F2 | "D"F2 "D"F2 "D"F2 | "D"A4-"D"AB | "D"AF "D"ED "D"DE | !
"D"F2 "D"d2 "Bm"Bd | "D"A3 F "D"DE | "D"F2 "D"AF "D"ED | "D"D4 "Bm"Bc ||!
"D"d2"D"d3 e |"D"dc  "Bm"BA "Bm"Bc | "Bm"d3 B "D"A F | "D"D4 "D"d2 | "A"e4 "D"ef | "A"e3  d "D"ed |\
 "D"f3 a"D"fe | "D"dc "Bm"BA "Bm"Bc |
 "D"d3 c "D"de | "D"dc "Bm"BA "Bm"Bc  | "Bm"d3 B  "D"AF | "D"D4 "D"DF | "D"F2 "D"d2 "Bm"Bd | "D"A3F "D"DE |
"D"F2 "D"AF "D"ED | "D"D4 "Bm"Bc |!
"D"d2"D"d3 e |"D"dc  "Bm"BA "Bm"Bc | "Bm"d3 B "D"A F | "D"D4 "D"d2 | "A"e4 "D"ef | "A"e3  d "D"ed |\
 "D"f3 a "D"fe | "D"dc "Bm"BA "Bm"Bc |
 "D"d3 c "D"de | "D"dc "Bm"BA "Bm"Bc  | "Bm"d3 B  "D"AF | "D"D4 "D"DF | "D"F2 "D"d2 "Bm"Bd | "D"A3F "D"DE |
"D"F2 "D"AF "D"ED | D4  ||!
